www/assets/icons/psychology.svg

<svg width="24" height="24" viewBox="0 0 24 24" xmlns="http://www.w3.org/2000/svg" fill='currentColor'><path d="M13.0009 8.57C12.2109 8.57 11.5709 9.21 11.5709 10C11.5709 10.79 12.2109 11.43 13.0009 11.43C13.7909 11.43 14.4309 10.79 14.4309 10C14.4309 9.21 13.7909 8.57 13.0009 8.57Z"/><path d="M13.0009 3C9.25086 3 6.20086 5.94 6.02086 9.64L4.10086 12.2C3.85086 12.53 4.09086 13 4.50086 13H6.00086V16C6.00086 17.1 6.90086 18 8.00086 18H9.00086V21H16.0009V16.32C18.3609 15.2 20.0009 12.79 20.0009 10C20.0009 6.13 16.8709 3 13.0009 3ZM16.0009 10C16.0009 10.13 15.9909 10.26 15.9809 10.39L16.8109 11.05C16.8909 11.11 16.9109 11.21 16.8609 11.3L16.0609 12.69C16.0109 12.78 15.9009 12.81 15.8209 12.78L14.8309 12.38C14.6209 12.54 14.4009 12.67 14.1609 12.77L14.0009 13.83C13.9909 13.93 13.9009 14 13.8009 14H12.2009C12.1009 14 12.0209 13.93 12.0009 13.83L11.8509 12.77C11.6009 12.67 11.3809 12.54 11.1709 12.38L10.1809 12.78C10.0909 12.81 9.98086 12.78 9.93086 12.69L9.13086 11.3C9.08086 11.22 9.10086 11.11 9.18086 11.05L10.0209 10.39C10.0109 10.26 10.0009 10.13 10.0009 10C10.0009 9.87 10.0209 9.73 10.0409 9.61L9.19086 8.95C9.11086 8.89 9.09086 8.79 9.14086 8.69L9.94086 7.31C9.99086 7.22 10.0909 7.19 10.1809 7.22L11.1809 7.62C11.3809 7.47 11.6109 7.33 11.8509 7.23L12.0009 6.17C12.0209 6.07 12.1009 6 12.2009 6H13.8009C13.9009 6 13.9809 6.07 14.0009 6.17L14.1509 7.23C14.3909 7.33 14.6109 7.46 14.8209 7.62L15.8209 7.22C15.9109 7.19 16.0209 7.22 16.0609 7.31L16.8609 8.69C16.9109 8.78 16.8909 8.89 16.8109 8.95L15.9609 9.61C15.9909 9.73 16.0009 9.86 16.0009 10Z"/></svg>

<svg xmlns="http://www.w3.org/2000/svg" width="24" height="24" viewBox="0 0 24 24" fill='currentColor'><path d="M13 8.57a1.43 1.43 0 1 0 0 2.86 1.43 1.43 0 0 0 0-2.86"/><path d="M13 3C9.25 3 6.2 5.94 6.02 9.64L4.1 12.2a.5.5 0 0 0 .4.8H6v3c0 1.1.9 2 2 2h1v3h7v-4.68A6.999 6.999 0 0 0 13 3m3 7c0 .13-.01.26-.02.39l.83.66c.08.06.1.16.05.25l-.8 1.39c-.05.09-.16.12-.24.09l-.99-.4c-.21.16-.43.29-.67.39L14 13.83c-.01.1-.1.17-.2.17h-1.6c-.1 0-.18-.07-.2-.17l-.15-1.06c-.25-.1-.47-.23-.68-.39l-.99.4c-.09.03-.2 0-.25-.09l-.8-1.39a.19.19 0 0 1 .05-.25l.84-.66c-.01-.13-.02-.26-.02-.39s.02-.27.04-.39l-.85-.66c-.08-.06-.1-.16-.05-.26l.8-1.38c.05-.09.15-.12.24-.09l1 .4c.2-.15.43-.29.67-.39L12 6.17c.02-.1.1-.17.2-.17h1.6c.1 0 .18.07.2.17l.15 1.06c.24.1.46.23.67.39l1-.4c.09-.03.2 0 .24.09l.8 1.38a.2.2 0 0 1-.05.26l-.85.66c.03.12.04.25.04.39"/></svg>
